X:1
T:Title
%%score { ( 1 2 5 ) | ( 3 4 ) }
L:1/8
Q:1/4=100
M:2/4
K:Bb
V:1 bass nm="Grand Piano"
V:2 bass 
V:5 bass 
V:3 bass 
V:4 bass 
V:1
 z z/[K:treble] G/ G>G | B>B A>G | [^FA]4- | [FA]4 | d2 B2 | c2 A2 | BA G^F | [^FA]4 | G4 | %9
 z z/[K:treble] G/ G>G | B>B A>G | [^FA]4- | [FA]4 | d2 B2 | c2 A2 | BA G^F | [^FA]4 | z4 | %18
 z z/ G/ d>c | B>A G>^F | [DG-]4 | G2 z2 | z4 | [^FA-]4 | A>A e>d | c>B A>B | z4 | z z/ B/ d>c | %28
 B2 z2 | G4 |] %30
V:2
 G,,4[K:treble] | x4 | x4 | x4 | x4 | x4 | x4 | x4 | x4 | G,,4[K:treble] | x4 | x4 | x4 | x4 | x4 | %15
 x4 | x4 | G4- | G2 z2 | x4 | G,4- | [G,E]4- | [G,E]4 | A,2 z2 | x4 | x4 | c4- | c2 z2 | %28
 ^F->[F-A] [FG]>F | x4 |] %30
V:3
 z4 | [G,D]4 | D,2 A,2 | D2[K:treble] C2 | [B,DF]4 | [G,CE]4 | [^F,A,D]4 | [D,C]4 | [G,B,D]4 | z4 | %10
 [G,D]4 | D,2 A,2 | D2[K:treble] C2 | [B,DF]4 | [G,CE]4 | [^F,A,D]4 | [D,C]4 | [G,B,D]4 | z2 C2 | %19
 [D,B,]2 [C,A,]2 | B,,4 | z z/ G/ c>B | A>G ^F>G | z2 B,2 | C4- | C4 | [CE]4 | B,4 | [D,C]4 | %29
 [G,B,D]4 |] %30
V:4
 x4 | D,2 C,2 | x4 | x2[K:treble] x2 | x4 | x4 | x4 | x4 | x4 | x4 | D,2 C,2 | x4 | %12
 x2[K:treble] x2 | x4 | x4 | x4 | x4 | x4 | E,4 | x4 | x4 | C,4- | C,4 | D,4- | D,4- | D,4 | G,4- | %27
 G,4 | x4 | x4 |] %30
V:5
 x3/2[K:treble] x5/2 | x4 | x4 | x4 | x4 | x4 | x4 | x4 | x4 | x3/2[K:treble] x5/2 | x4 | x4 | x4 | %13
 x4 | x4 | x4 | x4 | x4 | G,2 z2 | x4 | x4 | x4 | x4 | x4 | x4 | x4 | x4 | D4 | x4 | x4 |] %30

